images/class__5.svg

<svg width="83" height="44" viewBox="0 0 83 44" fill="none" xmlns="http://www.w3.org/2000/svg">
<path d="M60.4004 42.7002H80.6004" stroke="#26303B" stroke-width="0.75" stroke-miterlimit="10" stroke-linecap="round"/>
<path d="M80.5001 5.7H60.7001C60.4001 5.7 60.1001 5.4 60.1001 5.1V1.6C60.1001 1.3 60.4001 1 60.7001 1H80.5001C80.8001 1 81.1001 1.3 81.1001 1.6V5.1C81.1001 5.5 80.8001 5.7 80.5001 5.7Z" stroke="#26303B" stroke-width="0.75" stroke-miterlimit="10"/>
<path d="M66.3 5.69981H64.6C64.3 5.69981 64 5.39981 64 5.09981V1.89981C64 1.59981 64.3 1.2998 64.6 1.2998H66.3C66.6 1.2998 66.9 1.59981 66.9 1.89981V5.19981C66.8 5.49981 66.6 5.69981 66.3 5.69981Z" stroke="#26303B" stroke-width="0.75" stroke-miterlimit="10"/>
<path d="M76.2004 5.69981H74.5004C74.2004 5.69981 73.9004 5.39981 73.9004 5.09981V1.89981C73.9004 1.59981 74.2004 1.2998 74.5004 1.2998H76.2004C76.5004 1.2998 76.8004 1.59981 76.8004 1.89981V5.19981C76.7004 5.49981 76.5004 5.69981 76.2004 5.69981Z" stroke="#26303B" stroke-width="0.75" stroke-miterlimit="10"/>
<path d="M60.3002 5.7998L60.2002 42.6998" stroke="#26303B" stroke-width="0.75" stroke-miterlimit="10" stroke-linecap="round"/>
<path d="M80.5 6L82.4 18.8" stroke="#26303B" stroke-width="0.75" stroke-miterlimit="10" stroke-linecap="round"/>
<path d="M82.4001 18.7998L80.6001 42.6998" stroke="#26303B" stroke-width="0.75" stroke-miterlimit="10" stroke-linecap="round"/>
<path d="M51 22.2002L60.4 42.6002" stroke="#26303B" stroke-width="0.75" stroke-miterlimit="10" stroke-linecap="round"/>
<path d="M51 22.1L60.3 18" stroke="#26303B" stroke-width="0.75" stroke-miterlimit="10" stroke-linecap="round"/>
<path d="M52.3003 24.1001L60.3003 20.6001" stroke="#26303B" stroke-width="0.75" stroke-miterlimit="10" stroke-linecap="round"/>
<path d="M76.2001 13.9999H65.2001C64.9001 13.9999 64.6001 13.6999 64.6001 13.3999V11.9999C64.6001 11.6999 64.9001 11.3999 65.2001 11.3999H76.1001C76.4001 11.3999 76.7001 11.6999 76.7001 11.9999V13.4999C76.7001 13.7999 76.5001 13.9999 76.2001 13.9999Z" stroke="#26303B" stroke-width="0.75" stroke-miterlimit="10" stroke-linecap="round"/>
<path d="M60.3003 5.7998V42.4998" stroke="#26303B" stroke-width="0.75" stroke-miterlimit="10" stroke-linecap="round"/>
<path d="M65 14V20.6" stroke="#26303B" stroke-width="0.75" stroke-miterlimit="10" stroke-linecap="round"/>
<path d="M76.3003 14V20.6" stroke="#26303B" stroke-width="0.75" stroke-miterlimit="10" stroke-linecap="round"/>
<path d="M65 20.7002L70.6 24.8002" stroke="#26303B" stroke-width="0.75" stroke-miterlimit="10" stroke-linecap="round"/>
<path d="M76.2002 20.7998L70.7002 24.8998" stroke="#26303B" stroke-width="0.75" stroke-miterlimit="10" stroke-linecap="round"/>
<path d="M7.0001 17.1001C6.4001 16.7001 6.2001 15.9001 6.7001 15.2001C6.7001 15.0001 6.6001 14.7001 6.5001 14.6001C6.4001 14.5001 6.3001 14.5001 6.2001 14.4001C6.0001 14.3001 5.8001 14.5001 5.8001 14.7001C5.6001 16.3001 5.7001 17.4001 5.6001 18.4001C5.8001 18.8001 5.9001 19.1001 5.7001 19.5001L5.8001 19.9001C6.0001 19.9001 6.2001 19.7001 6.2001 19.5001C6.2001 19.3001 6.2001 19.2001 6.2001 19.0001C6.2001 18.2001 6.3001 17.4001 6.4001 16.4001C6.6001 16.9001 6.8001 17.4001 6.9001 18.0001C6.9001 17.9001 7.0001 17.7001 7.0001 17.6001C7.0001 17.5001 7.0001 17.5001 7.0001 17.4001C7.0001 17.2001 7.0001 17.1001 7.0001 17.1001Z" fill="#26303B"/>
<path d="M23.8002 19.0001C23.8002 17.8001 23.9002 16.5001 23.6002 14.7001C23.6002 14.5001 23.4002 14.3001 23.2002 14.4001C23.1002 14.4001 23.0002 14.5001 22.9002 14.6001C22.8002 14.7001 22.7002 15.1001 22.6002 15.5001C22.5002 16.5001 22.3002 17.5001 22.2002 18.6001C22.4002 17.8001 22.6002 17.1001 22.9002 16.4001C23.0002 17.4001 23.0002 18.3001 23.1002 19.0001C23.1002 19.2001 23.1002 19.4001 23.1002 19.5001C23.1002 19.7001 23.3002 19.9001 23.5002 19.9001L23.6002 19.8001C23.6002 19.5001 23.7002 19.3001 23.8002 19.0001C23.8002 19.0001 23.8002 19.1001 23.8002 19.0001Z" fill="#26303B"/>
<path d="M28.3 15.4C28.2 13.1 28 11.2 27.6 9.70004C27.1 7.40004 26.4 6.10004 25.3 5.50004C24.6 5.10004 23.8 4.70004 23.1 4.30004C22.3 3.90004 21.4 3.50004 20.6 3.30004C20.6 3.30004 20.6 3.30004 20.5 3.30004C20.3 3.20004 20.1 3.40004 20 3.60004C19.7 4.80004 19 5.90004 18 6.70004C17.1 7.50004 15.9 7.90004 14.7 7.90004C13.5 7.90004 12.3 7.40004 11.4 6.70004C10.4 5.90004 9.7 4.80004 9.4 3.60004C9.3 3.40004 9.1 3.30004 8.9 3.30004C8.9 3.30004 8.9 3.30004 8.8 3.30004C8.1 3.60004 7.2 4.00004 6.3 4.30004C5.6 4.60004 4.8 5.10004 4.1 5.50004C3 6.20004 2.3 7.40004 1.8 9.70004C1.6 10.6 1.4 12.8 1.2 14.7C1 16.5 1 18.2 1 18.3C1.1 18.4 1 18.4 1.1 18.5C1.2 18.3 1.6 18.2 1.7 18.1C2.1 14.4 2.1 11.7 2.5 9.80004C3 7.70004 3.5 6.60004 4.4 6.10004C5.1 5.70004 5.9 5.30004 6.6 5.00004C7.3 4.70004 8 4.40004 8.6 4.10004C9 5.30004 9.8 6.40004 10.7 7.20004C11.8 8.10004 13.1 8.60004 14.5 8.60004C16 8.60004 17.2 8.20004 18.3 7.30004C19.3 6.50004 20 5.10004 20.4 3.90004C21 4.20004 22 4.50004 22.7 4.90004C23.4 5.30004 24.2 5.70004 24.9 6.10004C25.8 6.60004 26.2 7.80004 26.7 9.80004C27 11.2 27.3 13 27.5 15.2C28.2 15.3 27.7 15.2 28.3 15.4Z" fill="#26303B"/>
<path d="M23.2 14.8999C20.5 26.4999 23.5 34.7999 23.2 35.9999" stroke="#26303B" stroke-width="0.75" stroke-miterlimit="10" stroke-linecap="round"/>
<path d="M6.39997 15.2998C9.09997 26.7998 5.59997 35.0998 6.19997 36.1998" stroke="#26303B" stroke-width="0.75" stroke-miterlimit="10" stroke-linecap="round"/>
<path d="M6.30029 36.2C6.60029 36.2 14.5003 40.3 23.2003 36" stroke="#26303B" stroke-width="0.75" stroke-miterlimit="10" stroke-linecap="round"/>
<path d="M1.60006 14.8999C0.200057 29.4999 1.80006 39.5999 2.00006 40.7999" stroke="#26303B" stroke-width="0.75" stroke-miterlimit="10" stroke-linecap="round"/>
<path d="M6.00039 17C5.60039 29.9 5.10039 39.7 4.90039 40.8" stroke="#26303B" stroke-width="0.75" stroke-miterlimit="10" stroke-linecap="round"/>
<path d="M2.1001 40.7998H5.0001" stroke="#26303B" stroke-width="0.75" stroke-miterlimit="10"/>
<path d="M27.9003 14.8999C29.3003 29.4999 27.5003 39.5999 27.3003 40.7999" stroke="#26303B" stroke-width="0.75" stroke-miterlimit="10" stroke-linecap="round"/>
<path d="M23.4004 16.7002C23.8004 29.6002 24.2004 39.7002 24.4004 40.8002" stroke="#26303B" stroke-width="0.75" stroke-miterlimit="10" stroke-linecap="round"/>
<path d="M27.2003 40.7998H24.3003" stroke="#26303B" stroke-width="0.75" stroke-miterlimit="10"/>
</svg>

<svg width="83" height="44" fill="none" xmlns="http://www.w3.org/2000/svg"><path d="M60.4 42.7h20.2" stroke="#26303B" stroke-width=".75" stroke-miterlimit="10" stroke-linecap="round"/><path d="M80.5 5.7H60.7c-.3 0-.6-.3-.6-.6V1.6c0-.3.3-.6.6-.6h19.8c.3 0 .6.3.6.6v3.5c0 .4-.3.6-.6.6Z" stroke="#26303B" stroke-width=".75" stroke-miterlimit="10"/><path d="M66.3 5.7h-1.7c-.3 0-.6-.3-.6-.6V1.9c0-.3.3-.6.6-.6h1.7c.3 0 .6.3.6.6v3.3c-.1.3-.3.5-.6.5ZM76.2 5.7h-1.7c-.3 0-.6-.3-.6-.6V1.9c0-.3.3-.6.6-.6h1.7c.3 0 .6.3.6.6v3.3c-.1.3-.3.5-.6.5Z" stroke="#26303B" stroke-width=".75" stroke-miterlimit="10"/><path d="m60.3 5.8-.1 36.9M80.5 6l1.9 12.8M82.4 18.8l-1.8 23.9M51 22.2l9.4 20.4M51 22.1l9.3-4.1M52.3 24.1l8-3.5M76.2 14h-11c-.3 0-.6-.3-.6-.6V12c0-.3.3-.6.6-.6h10.9c.3 0 .6.3.6.6v1.5c0 .3-.2.5-.5.5ZM60.3 5.8v36.7M65 14v6.6M76.3 14v6.6M65 20.7l5.6 4.1M76.2 20.8l-5.5 4.1" stroke="#26303B" stroke-width=".75" stroke-miterlimit="10" stroke-linecap="round"/><path d="M7 17.1c-.6-.4-.8-1.2-.3-1.9 0-.2-.1-.5-.2-.6-.1-.1-.2-.1-.3-.2-.2-.1-.4.1-.4.3-.2 1.6-.1 2.7-.2 3.7.2.4.3.7.1 1.1l.1.4c.2 0 .4-.2.4-.4V19c0-.8.1-1.6.2-2.6.2.5.4 1 .5 1.6 0-.1.1-.3.1-.4v-.5ZM23.8 19c0-1.2.1-2.5-.2-4.3 0-.2-.2-.4-.4-.3-.1 0-.2.1-.3.2-.1.1-.2.5-.3.9-.1 1-.3 2-.4 3.1.2-.8.4-1.5.7-2.2.1 1 .1 1.9.2 2.6v.5c0 .2.2.4.4.4l.1-.1c0-.3.1-.5.2-.8 0 0 0 .1 0 0Z" fill="#26303B"/><path d="M28.3 15.4c-.1-2.3-.3-4.2-.7-5.7-.5-2.3-1.2-3.6-2.3-4.2-.7-.4-1.5-.8-2.2-1.2-.8-.4-1.7-.8-2.5-1h-.1c-.2-.1-.4.1-.5.3-.3 1.2-1 2.3-2 3.1-.9.8-2.1 1.2-3.3 1.2-1.2 0-2.4-.5-3.3-1.2-1-.8-1.7-1.9-2-3.1-.1-.2-.3-.3-.5-.3h-.1c-.7.3-1.6.7-2.5 1-.7.3-1.5.8-2.2 1.2-1.1.7-1.8 1.9-2.3 4.2-.2.9-.4 3.1-.6 5-.2 1.8-.2 3.5-.2 3.6.1.1 0 .1.1.2.1-.2.5-.3.6-.4.4-3.7.4-6.4.8-8.3.5-2.1 1-3.2 1.9-3.7.7-.4 1.5-.8 2.2-1.1.7-.3 1.4-.6 2-.9.4 1.2 1.2 2.3 2.1 3.1 1.1.9 2.4 1.4 3.8 1.4 1.5 0 2.7-.4 3.8-1.3 1-.8 1.7-2.2 2.1-3.4.6.3 1.6.6 2.3 1 .7.4 1.5.8 2.2 1.2.9.5 1.3 1.7 1.8 3.7.3 1.4.6 3.2.8 5.4.7.1.2 0 .8.2Z" fill="#26303B"/><path d="M23.2 14.9c-2.7 11.6.3 19.9 0 21.1M6.4 15.3c2.7 11.5-.8 19.8-.2 20.9M6.3 36.2c.3 0 8.2 4.1 16.9-.2M1.6 14.9c-1.4 14.6.2 24.7.4 25.9M6 17c-.4 12.9-.9 22.7-1.1 23.8" stroke="#26303B" stroke-width=".75" stroke-miterlimit="10" stroke-linecap="round"/><path d="M2.1 40.8H5" stroke="#26303B" stroke-width=".75" stroke-miterlimit="10"/><path d="M27.9 14.9c1.4 14.6-.4 24.7-.6 25.9M23.4 16.7c.4 12.9.8 23 1 24.1" stroke="#26303B" stroke-width=".75" stroke-miterlimit="10" stroke-linecap="round"/><path d="M27.2 40.8h-2.9" stroke="#26303B" stroke-width=".75" stroke-miterlimit="10"/></svg>
